X: 38317
T: Stack Of Barley, The
R: barndance
M: 4/4
K: Gmajor
|:Bd|gb (3agf gfed|(3BBB BA B2d2|DEGA BA (3Bcd|e2A2A2 (3Bcd|
ga (3baf gfed|(3BBB BAB2d2|DEGA (3BBB dB|1 A2G2G2:|2 A2G2 GEDA||
|:BGBd (3ggg gb|agfg e2d2|(3ggg fg edBd|e2(3AAA A2 ef|
gb (3agf gfed|(3BBB BA B2d2|DEGA (3BBB dB|1 A2G2G2 GA:|2 A2G2G2||

